<?xml version="1.0" encoding="UTF-8"?>
<map version="1.10" tiledversion="1.11.0" orientation="orthogonal" renderorder="right-down" width="132" height="92" tilewidth="32" tileheight="32" infinite="0" nextlayerid="3" nextobjectid="15">
 <properties>
  <property name="id" value="5e4ada37-37e1-438c-9233-581f10c055c7"/>
  <property name="name" value="Place du village"/>
  <property name="description" value="Le coeur fortifié du village : une place pavée autour d'une fontaine, entre l'auberge et la forge, à l'abri de hauts remparts gardés. Deux téléporteurs y mènent à l'Orée de la forêt et au Chemin du cimetière."/>
  <property name="isStartingMap" type="bool" value="true"/>
 </properties>
 <tileset firstgid="1" name="Place du village" tilewidth="32" tileheight="32" tilecount="13" columns="13">
  <tile id="0">
   <properties>
    <property name="walkable" type="bool" value="true"/>
    <property name="terrain" value="forestFloor"/>
   </properties>
  </tile>
  <tile id="1">
   <properties>
    <property name="walkable" type="bool" value="false"/>
    <property name="terrain" value="tree"/>
   </properties>
  </tile>
  <tile id="2">
   <properties>
    <property name="walkable" type="bool" value="true"/>
    <property name="terrain" value="grass"/>
   </properties>
  </tile>
  <tile id="3">
   <properties>
    <property name="walkable" type="bool" value="false"/>
    <property name="terrain" value="rampart"/>
   </properties>
  </tile>
  <tile id="4">
   <properties>
    <property name="walkable" type="bool" value="true"/>
    <property name="terrain" value="dirtPath"/>
   </properties>
  </tile>
  <tile id="5">
   <properties>
    <property name="walkable" type="bool" value="true"/>
    <property name="terrain" value="pavedStone"/>
   </properties>
  </tile>
  <tile id="6">
   <properties>
    <property name="walkable" type="bool" value="false"/>
    <property name="terrain" value="grass"/>
   </properties>
  </tile>
  <tile id="7">
   <properties>
    <property name="walkable" type="bool" value="false"/>
    <property name="terrain" value="auberge"/>
   </properties>
  </tile>
  <tile id="8">
   <properties>
    <property name="walkable" type="bool" value="false"/>
    <property name="terrain" value="forge"/>
   </properties>
  </tile>
  <tile id="9">
   <properties>
    <property name="walkable" type="bool" value="false"/>
    <property name="terrain" value="pavedStone"/>
   </properties>
  </tile>
  <tile id="10">
   <properties>
    <property name="walkable" type="bool" value="false"/>
    <property name="terrain" value="forestFloor"/>
   </properties>
  </tile>
  <tile id="11">
   <properties>
    <property name="walkable" type="bool" value="false"/>
    <property name="terrain" value="dirtPath"/>
   </properties>
  </tile>
  <tile id="12">
   <properties>
    <property name="walkable" type="bool" value="true"/>
    <property name="terrain" value="fieldCrop"/>
   </properties>
  </tile>
 </tileset>
 <layer id="1" name="terrain" width="132" height="92">
  <data encoding="csv">
1,1,2,2,2,2,2,2,2,2,2,2,2,2,2,2,2,2,2,2,1,2,2,2,2,2,2,1,2,2,2,2,1,2,2,1,2,2,2,2,2,2,2,2,2,2,2,2,2,1,2,2,2,2,2,2,2,2,2,2,2,2,1,2,1,2,2,2,2,2,2,2,2,2,2,2,2,2,2,2,2,2,2,2,2,2,2,2,2,2,2,2,1,2,2,1,2,2,2,2,2,1,2,2,2,2,2,1,2,2,2,1,2,2,2,2,2,1,2,2,2,2,2,2,2,1,1,2,2,2,2,2,
2,1,1,2,2,1,2,2,2,2,2,2,2,2,2,2,2,2,2,1,2,2,2,2,2,2,2,2,2,2,2,2,2,2,2,2,1,2,2,2,2,2,2,2,2,2,2,2,2,2,2,2,1,2,1,2,2,2,2,2,2,2,2,2,2,2,2,2,2,2,2,2,2,2,2,2,2,2,2,2,2,2,2,2,2,2,2,2,2,1,1,2,2,2,2,2,2,2,1,2,2,2,2,2,1,2,2,2,2,1,2,2,2,2,2,2,2,1,1,1,2,2,2,2,2,1,2,2,1,2,1,2,
1,1,2,2,2,2,1,2,2,1,2,2,2,2,2,2,2,2,2,2,2,2,2,2,2,2,2,2,2,2,1,2,2,2,2,2,2,2,2,2,2,2,2,2,2,2,2,2,2,2,2,2,2,2,1,2,2,2,2,1,2,2,2,2,2,2,2,2,2,2,2,2,2,2,2,2,2,2,2,2,2,2,2,2,2,2,2,2,2,2,2,1,2,2,1,2,2,2,2,2,2,2,2,1,2,2,2,2,2,2,2,2,2,1,2,1,2,2,2,2,2,1,2,2,2,2,2,1,2,2,1,2,
1,2,2,2,2,2,2,2,2,1,2,2,2,2,2,1,2,2,2,2,2,1,2,2,2,2,2,2,2,2,2,2,2,1,2,1,2,1,2,2,2,1,2,2,1,2,1,2,1,2,2,2,2,2,2,1,1,2,2,2,1,2,2,2,2,2,2,1,2,2,2,2,1,2,2,2,2,2,1,2,2,2,2,2,2,1,2,2,1,2,2,2,2,2,2,2,1,1,1,2,1,1,1,2,1,2,2,2,2,2,2,2,2,2,2,1,2,2,2,2,2,1,2,2,2,2,2,2,2,2,1,1,
2,1,2,2,2,2,2,2,2,2,2,2,2,1,2,2,2,1,2,2,2,2,2,2,2,1,2,1,1,1,2,2,2,2,2,2,2,2,2,2,2,2,2,2,2,2,2,2,2,2,1,1,2,2,2,1,2,2,2,2,2,2,2,2,2,1,2,1,2,2,2,1,2,1,2,2,2,1,2,2,1,2,1,1,2,2,2,2,2,2,2,2,1,2,2,2,2,2,2,2,2,2,2,2,2,2,2,2,1,2,1,2,2,2,2,1,2,2,2,2,1,2,2,2,2,2,1,2,2,2,2,2,
2,1,2,2,2,1,1,1,1,1,1,1,1,1,1,1,1,1,1,1,1,1,1,1,1,1,1,1,2,1,1,1,1,1,1,1,1,1,1,1,1,1,1,1,1,1,1,1,1,1,1,1,1,1,1,1,1,1,1,1,1,1,1,1,1,1,1,1,1,1,1,1,1,1,1,1,1,1,1,1,1,1,1,1,1,1,1,1,1,1,1,1,1,1,1,1,1,1,1,1,1,1,1,1,1,1,1,1,1,1,1,1,1,1,1,1,1,1,1,1,1,1,1,1,1,1,1,2,2,2,2,2,
1,2,2,2,2,1,1,2,1,2,1,2,1,1,2,1,1,1,2,1,1,1,1,1,1,2,1,1,1,1,1,2,1,2,1,2,1,1,2,1,1,2,1,1,1,1,2,1,1,1,2,1,1,2,1,1,2,1,1,1,1,1,1,2,1,1,1,2,1,1,2,1,1,1,1,2,1,1,1,1,1,1,1,1,1,1,2,1,2,1,2,1,1,1,2,1,1,1,1,1,2,1,1,1,1,1,2,1,1,1,1,1,2,1,1,1,1,1,1,1,1,1,1,1,2,1,1,2,2,2,1,1,
2,2,2,2,1,1,1,1,1,1,1,1,1,1,1,1,1,1,1,1,2,1,1,2,1,1,1,1,1,2,1,1,1,1,1,1,1,1,1,1,1,1,1,2,1,1,1,1,1,1,1,1,1,1,1,1,1,1,1,2,1,2,1,1,1,1,1,1,1,1,1,1,1,2,1,1,1,1,2,1,1,1,1,1,1,1,1,1,1,1,1,1,2,1,1,1,2,1,1,1,1,1,1,1,1,1,1,1,2,1,1,1,1,1,2,1,2,1,1,1,1,1,1,1,1,1,1,2,2,2,1,2,
2,2,2,2,2,1,2,1,2,1,2,1,2,1,2,1,1,2,1,1,1,1,1,1,1,1,1,1,1,1,1,1,1,1,1,1,1,1,1,1,1,1,1,1,1,1,1,1,1,1,1,1,1,1,1,1,1,1,1,1,1,1,1,1,1,1,1,1,1,1,1,1,1,1,1,1,1,1,1,1,1,1,1,1,1,1,1,1,1,1,1,1,1,1,1,1,1,1,1,1,1,1,1,1,1,1,1,1,1,1,1,1,1,1,1,1,1,1,1,1,1,1,1,2,1,2,1,2,2,1,2,2,
2,1,2,2,2,1,1,1,1,1,1,1,1,1,3,3,1,1,1,1,1,2,1,1,4,4,4,4,1,3,1,1,1,1,1,1,1,1,1,1,1,1,1,1,1,3,3,4,4,4,4,1,1,1,1,1,1,1,1,1,1,1,1,1,1,3,1,1,1,1,4,4,4,4,1,1,1,1,1,1,1,1,1,1,1,1,1,1,1,1,1,1,1,4,4,4,4,1,1,1,1,1,1,1,1,1,1,1,1,1,3,3,1,1,1,1,4,4,4,4,1,3,3,1,1,1,1,2,2,2,2,2,
2,2,2,2,1,1,1,1,1,1,3,3,3,3,3,3,3,3,3,2,3,3,3,4,4,4,4,4,4,3,3,3,3,3,3,3,3,3,3,3,3,1,1,3,3,3,4,4,4,4,4,4,3,3,3,3,3,1,3,3,3,3,3,3,3,3,3,3,3,4,4,4,4,4,4,1,3,3,3,3,3,3,3,1,1,1,1,3,3,3,3,3,4,4,4,4,4,4,3,3,3,3,3,3,3,3,3,3,3,3,3,3,3,3,1,4,4,4,4,4,4,3,3,2,1,1,1,2,2,2,2,2,
2,1,2,2,2,1,1,2,1,1,1,3,2,3,3,3,3,3,3,3,3,3,3,4,4,4,4,4,4,4,4,4,4,4,4,4,4,4,4,4,4,4,4,4,4,4,4,4,4,4,4,4,4,4,4,4,4,4,4,4,4,4,4,4,4,4,4,4,4,4,4,4,4,4,4,4,4,4,4,4,4,4,4,4,4,4,4,4,4,4,4,4,4,4,4,4,4,4,4,4,4,4,4,4,4,4,4,4,4,4,4,4,4,4,4,4,4,4,4,4,4,3,3,1,1,1,1,2,2,2,2,2,
2,2,2,2,2,1,1,1,1,1,3,3,3,3,3,3,3,3,3,3,3,3,3,4,4,4,4,4,4,4,4,4,4,4,4,4,4,4,4,4,4,4,4,4,4,4,4,4,4,4,4,4,4,4,4,4,4,4,4,4,4,4,4,4,4,4,4,4,4,4,4,4,4,4,4,4,4,4,4,4,4,4,4,4,4,4,4,4,4,4,4,4,4,4,4,4,4,4,4,4,4,4,4,4,4,4,4,4,4,4,4,4,4,4,4,4,4,4,4,4,4,3,2,1,1,1,1,2,2,2,2,2,
2,2,2,2,2,1,2,1,1,1,3,3,3,3,3,3,3,3,3,3,3,3,3,4,4,4,4,4,4,3,5,5,3,3,3,3,3,3,3,3,3,3,3,3,3,3,4,4,4,4,4,4,3,3,3,3,3,3,3,3,3,3,3,3,3,3,3,3,3,4,4,4,4,4,4,3,3,3,3,3,3,3,3,3,3,3,3,3,3,3,3,3,4,4,4,4,4,4,3,3,3,3,3,3,3,3,3,3,3,3,3,3,5,5,5,4,4,4,4,4,4,3,1,1,2,1,1,2,2,1,2,2,
2,2,2,2,2,1,1,1,1,1,3,3,3,3,3,3,3,3,2,3,3,3,3,3,4,4,4,4,3,5,5,5,3,3,3,3,3,3,3,3,3,3,3,3,3,3,3,4,4,4,4,3,3,3,3,3,3,3,3,3,3,3,3,3,3,3,3,3,3,3,4,4,4,4,3,3,3,3,3,3,3,3,3,3,3,3,3,3,3,3,3,3,3,4,4,4,4,3,3,3,3,3,3,3,3,3,3,3,3,3,3,3,5,5,3,3,4,4,4,4,3,3,1,1,1,1,1,2,1,2,2,2,
2,2,2,2,2,1,2,1,2,1,3,3,3,3,3,3,3,3,3,3,3,3,3,3,3,4,4,5,5,5,5,5,3,3,3,3,3,3,3,3,3,3,3,5,3,3,3,3,5,5,3,3,3,3,3,3,3,3,3,3,3,3,3,3,3,3,3,3,3,3,6,6,6,6,5,3,5,3,3,3,3,3,3,3,5,5,5,5,3,3,3,3,3,3,5,5,3,3,3,3,3,3,3,3,3,3,3,3,3,3,3,3,5,5,3,3,5,4,4,3,3,3,1,2,1,2,1,1,2,2,2,1,
2,2,1,2,2,1,1,1,1,1,3,3,3,3,3,3,3,3,3,3,3,3,3,3,3,4,4,5,5,5,5,5,5,5,5,5,5,5,5,5,5,5,5,5,5,5,5,5,5,5,5,5,5,5,5,5,5,5,5,5,5,5,5,5,5,5,5,5,5,5,6,6,6,6,5,5,5,5,5,5,5,5,5,5,5,5,5,5,5,5,5,5,5,5,5,5,5,5,5,5,5,5,5,5,5,5,5,5,5,5,5,5,5,5,5,5,5,4,4,3,3,3,1,1,1,1,1,1,1,2,1,2,
2,2,2,2,2,1,2,1,1,1,3,3,3,3,3,3,3,3,2,3,3,3,3,3,3,4,4,5,5,5,5,5,5,5,5,5,5,5,5,5,5,5,5,5,5,5,5,5,5,5,5,5,5,5,5,5,5,5,5,5,5,5,5,5,5,5,5,5,5,5,6,6,6,6,5,5,5,5,5,5,5,5,5,5,5,5,5,5,5,5,5,5,5,5,5,5,5,5,5,5,5,5,5,5,5,5,5,5,5,5,5,5,5,5,5,5,5,4,4,3,3,3,1,1,2,1,2,2,2,2,2,2,
2,2,2,1,1,1,1,1,2,1,3,3,3,3,3,3,3,3,3,3,3,3,3,3,3,4,4,3,3,5,5,5,3,3,3,3,3,3,3,3,3,5,3,3,3,3,3,3,5,5,3,3,3,3,3,3,3,3,3,3,3,3,3,3,3,3,3,3,3,3,6,6,6,6,3,3,3,3,3,3,3,3,3,3,3,3,5,3,3,3,5,5,5,3,5,5,3,3,3,3,3,3,3,3,3,3,3,3,3,5,3,3,5,5,3,3,3,4,4,3,3,3,1,1,1,1,1,1,1,1,2,2,
2,2,2,2,2,1,1,1,1,3,3,3,3,3,3,3,3,3,2,3,3,3,3,3,3,4,4,3,3,3,5,5,3,3,3,2,3,3,3,3,3,3,3,3,3,3,3,3,5,5,3,3,3,3,3,3,3,3,3,3,3,3,3,3,3,3,3,3,3,3,6,6,6,6,3,3,3,3,3,3,3,3,3,3,3,3,3,3,3,3,3,3,3,3,5,5,3,3,3,3,3,3,3,3,3,3,3,2,3,3,3,3,5,5,3,3,3,4,4,3,3,3,1,1,2,1,1,1,2,2,2,2,
2,2,1,1,2,1,2,1,1,1,3,3,3,3,3,3,3,3,3,3,3,3,3,3,3,4,4,3,3,3,5,5,5,3,3,3,3,3,3,3,3,3,3,3,3,3,3,3,5,5,3,3,3,3,3,3,3,3,3,3,3,3,3,3,3,3,3,3,3,7,6,6,6,6,3,3,3,3,3,3,3,3,3,3,3,3,3,3,3,3,3,3,3,3,5,5,3,3,2,3,3,3,3,3,3,3,3,3,3,3,3,3,5,5,3,3,3,4,4,3,3,3,1,1,1,1,2,2,2,1,2,2,
2,2,2,2,2,1,1,1,1,1,3,3,3,3,3,3,3,3,3,3,3,3,3,3,3,4,4,3,3,3,5,5,5,3,3,8,8,8,8,8,8,8,8,8,3,3,3,3,5,5,3,3,3,3,3,3,3,3,3,3,3,3,3,3,3,3,3,3,3,3,6,6,6,6,3,3,3,3,3,3,3,3,3,3,3,3,3,3,3,3,3,3,3,3,5,5,3,3,3,3,3,3,3,3,3,3,3,3,3,3,3,3,5,5,3,3,3,4,4,3,3,3,1,2,1,1,1,2,2,2,1,2,
2,2,2,2,2,1,1,1,1,1,3,3,3,3,3,2,3,3,3,3,3,3,3,3,3,4,4,3,3,3,5,5,5,3,3,8,8,8,8,8,8,8,8,8,3,3,3,3,5,5,3,3,8,8,8,8,8,8,8,3,3,8,8,8,8,8,8,3,3,3,6,6,6,6,3,3,3,8,8,8,8,8,8,3,3,8,8,8,8,8,8,8,3,3,5,5,3,3,3,3,3,3,3,7,3,3,3,3,3,3,3,3,5,5,3,3,3,4,4,3,3,1,1,1,1,2,1,2,2,2,2,2,
2,2,2,2,2,1,1,1,1,1,3,3,3,3,3,3,3,3,3,3,3,3,3,3,3,4,4,3,3,3,5,5,5,3,3,8,8,8,8,8,8,8,8,8,3,3,3,3,5,5,3,3,8,8,8,8,8,8,8,3,3,8,8,8,8,8,8,3,3,3,6,6,6,6,3,3,3,8,8,8,8,8,8,3,3,8,8,8,8,8,8,8,3,3,5,5,3,3,3,3,3,3,3,7,3,3,3,3,3,3,3,3,5,5,3,3,3,4,4,3,3,1,1,1,1,1,1,2,2,2,2,1,
1,2,2,2,1,1,1,1,2,1,3,3,3,3,3,3,3,3,3,3,3,3,3,3,3,4,4,3,3,3,5,5,3,3,3,8,8,8,8,8,8,8,8,8,3,3,3,3,5,5,3,3,8,8,8,8,8,8,8,3,3,8,8,8,8,8,8,3,3,3,6,6,6,6,3,3,3,8,8,8,8,8,8,3,3,8,8,8,8,8,8,8,3,3,5,5,3,3,2,3,3,3,3,3,3,3,3,3,3,3,3,5,5,5,3,3,3,4,4,3,3,1,1,2,1,2,1,1,1,2,2,2,
1,1,2,1,2,1,1,1,1,1,3,3,3,3,3,3,3,3,3,3,2,3,3,3,3,4,4,3,3,3,5,5,3,3,3,8,8,8,8,8,8,8,8,8,3,3,3,3,5,5,3,3,8,8,8,8,8,8,8,3,3,8,8,8,8,8,8,3,3,3,6,6,6,6,3,3,3,8,8,8,8,8,8,3,3,8,8,8,8,8,8,8,3,3,5,5,3,3,3,3,3,3,3,3,3,3,3,3,3,3,3,3,5,5,3,3,3,4,4,3,3,1,1,1,1,1,1,2,2,1,2,2,
2,2,2,2,1,1,2,1,1,3,3,3,3,3,3,3,3,2,3,3,3,3,3,3,4,4,4,4,3,3,5,5,3,3,3,8,8,8,8,8,8,8,8,8,3,3,3,3,5,5,3,3,8,8,8,8,8,8,8,3,3,8,8,8,8,8,8,3,3,3,6,6,6,6,3,3,3,8,8,8,8,8,8,3,3,8,8,8,8,8,8,8,3,3,5,5,3,3,3,3,3,3,3,3,3,3,3,3,3,3,3,3,5,5,3,3,4,4,4,4,3,1,1,1,1,1,1,2,2,2,2,2,
2,2,1,1,2,1,1,1,1,3,3,3,3,3,3,3,3,3,3,3,2,3,3,4,4,4,4,4,4,3,5,5,3,3,3,8,8,8,8,8,8,8,8,8,3,3,3,3,5,5,3,3,8,8,8,8,8,8,8,3,3,3,3,3,3,3,3,3,3,3,6,6,6,6,3,3,3,3,3,3,3,3,3,3,3,8,8,8,8,8,8,8,3,3,5,5,3,3,3,3,3,3,3,3,3,3,3,3,3,3,3,3,5,5,3,4,4,4,4,4,4,3,2,1,1,1,1,2,2,1,2,2,
1,2,2,2,1,1,1,2,1,2,3,3,3,3,3,3,3,3,3,3,3,3,3,4,4,4,4,4,4,3,5,5,3,3,3,3,3,3,3,3,3,3,3,3,3,3,3,3,5,5,3,3,3,3,3,3,3,3,3,3,3,3,3,3,3,3,3,3,3,3,6,6,6,6,3,3,3,3,3,3,3,3,3,3,3,3,3,3,3,3,3,3,3,3,5,5,3,3,3,3,3,3,3,3,3,3,3,3,3,3,3,3,5,5,3,4,4,4,4,4,4,3,1,1,1,2,1,2,2,1,2,2,
2,1,2,1,2,1,1,1,1,1,3,3,3,3,3,3,3,3,3,3,3,3,3,4,4,4,4,4,4,3,5,5,3,3,3,3,3,3,3,3,3,3,3,3,3,3,2,3,5,5,3,3,3,3,3,3,3,3,3,3,3,3,3,3,3,3,3,3,7,3,6,6,6,6,3,3,3,3,3,3,3,3,3,3,3,3,3,3,3,3,3,3,3,2,5,5,3,3,3,3,3,3,3,3,3,3,3,3,3,3,3,5,5,5,3,4,4,4,4,4,4,3,1,2,1,1,1,2,2,2,2,2,
2,2,2,2,2,1,2,1,2,1,3,3,3,3,3,3,3,3,3,3,3,3,3,4,4,4,4,4,4,3,5,5,3,3,3,3,3,3,3,3,3,3,3,3,3,3,3,3,5,5,3,3,3,3,3,3,3,3,3,3,3,3,3,3,3,3,3,3,3,3,6,6,6,6,7,3,3,3,3,3,3,3,3,3,3,3,3,3,3,3,3,3,3,3,5,5,3,3,3,3,3,3,3,3,3,3,3,3,3,3,3,5,5,5,3,4,4,4,4,4,4,3,1,1,1,2,1,1,2,2,2,2,
2,2,2,1,2,1,1,1,1,1,3,2,3,3,3,3,3,3,3,3,3,3,3,3,4,4,4,4,3,3,5,5,3,3,3,3,3,3,3,3,3,3,3,3,3,3,3,3,5,5,3,3,3,3,3,3,3,3,3,3,3,3,3,3,3,3,3,3,3,3,6,6,6,6,3,3,3,3,3,3,3,3,3,3,3,3,3,3,3,3,3,3,3,3,5,5,3,3,3,3,3,3,3,3,3,3,3,3,3,3,2,5,5,5,3,3,4,4,4,4,3,3,1,1,1,1,1,2,1,2,2,2,
2,2,1,2,2,1,1,2,1,1,3,3,3,3,3,3,3,3,3,3,3,3,3,3,3,4,4,3,3,3,5,5,3,3,8,8,8,8,8,8,8,8,8,8,8,8,3,3,5,5,3,3,3,3,3,3,3,3,3,3,3,3,3,3,3,3,3,3,3,3,6,6,6,6,3,3,3,3,3,3,3,3,3,3,3,3,3,3,3,3,3,3,3,3,5,5,3,3,3,3,3,3,3,3,3,3,3,3,3,3,3,5,5,5,3,3,3,4,4,3,3,3,1,2,1,1,1,2,2,1,1,2,
2,2,1,1,2,1,1,1,1,1,3,3,3,3,3,3,3,2,3,3,3,3,3,3,3,4,4,3,3,3,5,5,3,3,8,8,8,8,8,8,8,8,8,8,8,8,3,3,5,5,3,3,3,3,3,3,3,3,3,3,3,3,3,3,3,3,3,3,3,3,6,6,6,6,3,3,3,3,3,3,3,3,3,3,3,3,3,3,3,3,3,3,3,3,5,5,3,3,3,3,3,3,3,3,3,3,3,3,3,3,3,5,5,5,3,3,3,4,4,3,3,3,1,1,1,2,1,2,2,2,1,2,
1,1,2,2,1,1,1,1,1,1,3,3,3,3,3,3,3,3,3,3,3,3,3,3,3,4,4,3,3,3,5,5,3,3,8,8,8,8,8,8,8,8,8,8,8,8,3,3,5,5,3,3,3,3,3,3,3,3,3,3,3,3,3,3,3,3,3,3,3,3,6,6,6,6,3,3,3,3,3,3,3,3,3,3,3,3,3,3,3,3,3,3,3,3,5,5,3,3,9,9,9,9,9,9,9,9,9,9,9,3,7,7,5,5,3,3,3,4,4,3,3,3,1,1,1,1,1,2,2,2,2,2,
2,2,2,2,2,1,2,1,2,1,3,3,3,3,3,3,3,3,3,3,3,3,3,3,3,4,4,3,3,3,5,5,3,3,8,8,8,8,8,8,8,8,8,8,8,8,3,3,5,5,3,3,3,3,3,3,3,3,3,3,3,6,6,6,6,6,6,6,6,6,6,6,6,6,6,6,6,6,6,6,6,6,6,3,3,3,3,3,3,3,3,3,3,3,5,5,3,3,9,9,9,9,9,9,9,9,9,9,9,3,7,7,5,5,5,3,3,4,4,3,3,3,1,1,2,1,1,2,2,2,2,2,
1,2,2,2,2,1,1,1,1,1,1,3,3,3,3,3,3,3,3,3,3,3,3,3,3,4,4,3,3,3,5,5,3,3,8,8,8,8,8,8,8,8,8,8,8,8,3,3,5,5,3,3,3,3,3,3,3,3,3,3,6,6,6,6,6,6,6,6,6,6,6,6,6,6,6,6,6,6,6,6,6,6,6,6,3,3,3,3,3,3,3,3,3,3,5,5,3,3,9,9,9,9,9,9,9,9,9,9,9,3,7,7,5,5,5,3,3,4,4,3,3,3,1,1,1,1,1,1,2,2,2,2,
2,2,1,2,2,1,1,1,1,1,1,3,3,3,3,3,3,3,3,3,3,3,3,3,3,4,4,3,3,3,5,5,3,7,8,8,8,8,8,8,8,8,8,8,8,8,3,3,5,5,3,3,3,3,3,3,3,3,3,6,10,6,6,6,6,6,6,6,6,6,6,6,6,6,6,6,6,6,6,6,6,6,6,10,6,3,3,3,3,3,3,3,3,3,5,5,3,3,9,9,9,9,9,9,9,9,9,9,9,3,7,7,5,5,5,3,3,4,4,3,3,3,1,1,1,1,1,1,2,2,2,2,
2,2,1,1,1,1,1,1,2,1,1,2,3,3,3,3,3,3,3,3,3,3,3,3,3,4,4,3,3,3,5,5,3,7,8,8,8,8,8,8,8,8,8,8,8,8,3,3,5,5,3,3,3,3,3,3,3,3,6,6,6,10,10,10,6,6,6,6,6,6,6,6,6,6,6,6,6,6,6,6,10,10,10,6,6,6,3,3,3,3,3,3,3,3,5,5,3,3,9,9,9,9,9,9,9,9,9,9,9,3,3,3,5,5,3,3,3,4,4,3,3,3,1,1,1,1,1,1,1,1,2,2,
1,1,1,1,1,1,1,1,1,1,1,3,3,3,3,3,3,3,3,3,3,3,3,4,4,4,4,4,4,3,5,5,3,7,8,8,8,8,8,8,8,8,8,8,8,8,7,3,5,5,3,3,3,3,3,3,3,6,6,6,6,10,10,10,6,6,6,6,6,6,6,6,6,6,6,6,6,6,6,6,10,10,10,6,6,6,6,3,3,3,3,3,3,3,5,5,3,3,9,9,9,9,9,9,9,9,9,9,9,3,7,3,5,5,3,4,4,4,4,4,4,3,1,1,1,1,1,1,1,1,1,1,
1,1,1,1,1,1,1,1,1,1,3,3,3,3,3,3,3,3,3,3,3,3,3,4,4,4,4,4,4,3,5,5,3,3,3,3,3,3,3,3,3,3,3,3,3,3,3,3,5,5,3,3,3,3,3,3,3,6,6,6,6,6,6,6,6,6,10,6,6,6,6,6,6,6,6,6,6,10,6,6,6,6,6,6,6,6,6,3,3,3,3,3,3,3,5,5,3,3,3,3,3,3,3,3,3,3,3,3,3,3,7,3,5,5,3,4,4,4,4,4,4,3,1,1,1,1,1,1,1,1,1,1,
1,1,1,1,1,1,1,1,1,11,3,3,3,3,3,3,3,3,3,3,3,3,7,4,4,4,4,4,4,7,5,12,3,3,3,3,3,3,3,3,3,3,3,3,3,3,3,3,5,5,3,3,3,3,3,3,3,6,6,6,6,6,6,6,6,6,6,6,6,6,6,6,6,6,6,6,6,6,6,6,6,6,6,6,6,6,6,3,3,3,3,3,3,3,5,5,3,7,3,3,3,3,3,3,3,3,3,3,3,3,3,3,12,5,7,4,4,4,4,4,4,11,1,11,1,1,1,1,1,1,1,1,
3,3,3,3,6,6,3,3,3,3,3,3,3,3,3,3,3,3,3,3,3,3,3,4,4,4,4,4,4,3,5,5,3,3,3,7,3,3,8,3,3,8,3,3,3,3,7,3,5,5,3,3,3,3,3,3,3,6,6,6,6,6,6,6,6,6,6,6,6,6,6,6,6,6,6,6,6,6,6,6,6,6,6,6,6,6,6,3,3,3,3,3,3,3,5,5,3,3,7,3,3,3,3,3,3,3,3,3,3,7,3,3,5,5,3,4,4,4,4,4,4,3,3,3,3,3,6,6,3,3,3,3,
6,6,10,6,6,6,6,10,6,6,6,6,6,6,6,6,6,6,6,6,6,6,6,4,4,4,4,4,4,6,6,6,6,6,6,6,6,6,6,6,6,6,6,6,6,6,6,6,6,6,6,6,6,6,6,6,6,6,6,6,6,6,6,6,6,6,6,6,6,6,6,6,6,6,6,6,6,6,6,6,6,6,6,6,6,6,6,6,6,6,6,6,6,6,6,6,6,6,6,6,6,6,6,6,6,6,6,6,6,6,6,6,6,6,6,4,4,4,4,4,4,3,3,3,10,6,6,6,6,10,3,3,
6,6,6,6,6,6,6,6,6,6,6,6,6,6,6,6,6,6,6,6,6,6,6,6,6,6,6,6,6,6,6,6,6,6,6,6,6,6,6,6,6,6,6,6,6,6,6,6,6,6,6,6,6,6,6,6,6,6,6,6,6,6,6,6,6,6,6,6,6,6,10,10,10,10,6,6,6,6,6,6,6,6,6,6,6,6,6,6,6,6,6,6,6,6,6,6,6,6,6,6,6,6,6,6,6,6,6,6,6,6,6,6,6,6,6,6,6,6,6,5,5,5,5,5,6,6,6,6,6,6,5,5,
6,6,6,6,6,6,6,6,6,6,6,6,6,6,6,6,6,6,6,6,6,6,6,6,6,6,6,6,6,6,6,6,6,6,6,6,6,6,6,6,6,6,6,6,6,6,6,6,6,6,6,6,6,6,6,6,6,6,6,6,6,6,6,6,6,6,6,6,6,6,10,10,10,10,6,6,6,6,6,6,6,6,6,6,6,6,6,6,6,6,6,6,6,6,6,6,6,6,6,6,6,6,6,6,6,6,6,6,6,6,6,6,6,6,6,6,6,6,6,5,5,5,5,6,6,6,6,6,6,6,6,5,
6,6,6,6,6,6,6,6,6,6,6,6,6,6,6,6,6,6,6,6,6,6,6,6,6,6,6,6,6,6,6,6,6,6,6,6,6,6,6,6,6,6,6,6,6,6,6,6,6,6,6,6,6,6,6,6,6,6,6,6,6,6,6,6,6,6,6,6,6,6,10,10,10,10,6,6,6,6,6,6,6,6,6,6,6,6,6,6,6,6,6,6,6,6,6,6,6,6,6,6,6,6,6,6,6,6,6,6,6,6,6,6,6,6,6,6,6,6,6,5,5,5,5,6,6,6,6,6,6,6,6,5,
6,6,6,6,6,6,6,6,6,6,6,6,6,6,6,6,6,6,6,6,6,6,6,6,6,6,6,6,6,6,6,6,6,6,6,6,6,6,6,6,6,6,6,6,6,6,6,6,6,6,6,6,6,6,6,6,6,6,6,6,6,6,6,6,6,6,6,6,6,6,10,10,10,10,6,6,6,6,6,6,6,6,6,6,6,6,6,6,6,6,6,6,6,6,6,6,6,6,6,6,6,6,6,6,6,6,6,6,6,6,6,6,6,6,6,6,6,6,6,5,5,5,5,5,6,6,6,6,6,6,5,5,
6,6,10,6,6,6,6,10,6,6,6,6,6,6,6,6,6,6,6,6,6,6,6,4,4,4,4,4,4,6,6,6,6,6,6,6,6,6,6,6,6,6,6,6,6,6,6,6,6,6,6,6,6,6,6,6,6,6,6,6,6,6,6,6,6,6,6,6,6,6,6,6,6,6,6,6,6,6,6,6,6,6,6,6,6,6,6,6,6,6,6,6,6,6,6,6,6,6,6,6,6,6,6,6,6,6,6,6,6,6,6,6,6,6,6,4,4,4,4,4,4,3,3,3,10,6,6,6,6,10,3,3,
3,3,3,3,6,6,3,3,3,3,3,3,3,3,3,3,3,3,3,3,3,3,3,4,4,4,4,4,4,3,5,5,5,3,7,3,3,3,3,3,3,3,3,3,3,3,3,3,5,5,3,3,7,3,3,3,3,6,6,6,6,6,6,6,6,6,6,6,6,6,6,6,6,6,6,6,6,6,6,6,6,6,6,6,6,6,6,3,3,3,3,3,7,3,5,5,3,3,3,3,3,3,3,3,3,3,3,3,3,3,7,5,5,5,3,4,4,4,4,4,4,3,3,3,3,3,6,6,3,3,3,3,
1,1,1,1,1,1,1,1,1,1,3,3,3,3,3,3,3,3,3,3,3,3,7,4,4,4,4,4,4,7,5,5,5,3,3,3,3,3,3,3,3,3,3,3,3,3,3,3,5,5,3,3,3,3,3,3,3,6,6,6,6,6,6,6,6,6,6,6,6,6,6,6,6,6,6,6,6,6,6,6,6,6,6,6,6,6,6,3,3,3,3,3,3,3,5,5,3,3,3,3,3,3,3,3,3,3,3,3,3,3,3,3,5,5,7,4,4,4,4,4,4,7,1,1,1,1,1,1,1,1,1,1,
1,1,1,1,1,1,1,1,1,1,3,3,3,3,3,3,3,3,3,3,3,3,3,4,4,4,4,4,4,5,5,5,3,3,3,3,3,3,3,3,3,3,3,3,3,3,3,3,5,5,3,3,3,3,3,3,3,6,6,6,6,6,6,6,6,6,10,6,6,6,6,6,6,6,6,6,6,10,6,6,6,6,6,6,6,6,6,3,3,3,3,3,3,3,5,5,3,3,3,3,3,3,3,3,3,3,3,3,3,3,3,3,5,5,3,4,4,4,4,4,4,3,1,1,1,1,1,1,1,1,1,1,
1,1,1,1,1,1,1,1,1,1,3,3,3,3,3,3,3,3,3,3,3,3,3,4,4,4,4,4,4,3,5,5,3,3,3,8,8,8,8,8,8,8,8,8,3,3,3,3,5,5,3,3,3,3,3,3,3,6,6,6,6,6,6,6,6,6,6,6,6,6,6,6,6,6,6,6,6,6,6,6,6,6,6,6,6,6,6,3,3,3,3,3,3,3,5,5,3,3,3,3,8,8,8,8,8,8,8,8,8,3,3,3,5,5,3,4,4,4,4,4,4,3,1,1,1,1,1,1,1,1,1,1,
2,2,1,1,1,1,1,1,1,2,3,3,3,3,3,3,3,3,3,3,3,3,3,3,3,4,4,3,3,3,5,5,3,3,3,8,8,8,8,8,8,8,8,8,3,3,3,3,5,5,3,3,3,3,3,3,3,3,6,6,10,10,10,10,6,6,6,6,6,10,6,6,6,6,6,6,6,6,6,6,10,10,10,10,6,6,3,3,3,3,3,3,3,3,5,5,3,3,3,3,8,8,8,8,8,8,8,8,8,3,3,3,5,5,3,3,3,4,4,3,3,3,1,1,1,1,1,1,1,1,1,2,
2,2,1,2,2,1,2,1,1,1,3,3,3,3,3,3,3,3,3,3,3,3,3,3,3,4,4,3,3,3,5,5,3,3,3,8,8,8,8,8,8,8,8,8,3,3,3,3,5,5,3,3,3,3,3,3,3,3,3,6,10,10,10,10,6,6,6,6,6,6,6,6,6,6,6,6,6,6,6,6,10,10,10,10,6,3,3,3,3,3,3,3,3,3,5,5,3,3,3,3,8,8,8,8,8,8,8,8,8,3,3,3,5,5,3,3,3,4,4,3,3,3,1,1,1,1,1,1,2,2,2,2,
2,2,2,2,2,1,1,1,2,1,3,3,3,3,3,3,3,3,3,3,3,3,3,3,3,4,4,3,3,3,5,5,3,3,3,8,8,8,8,8,8,8,8,8,3,3,3,3,5,5,3,3,3,3,3,3,3,3,3,7,6,6,6,6,10,6,6,6,6,6,6,6,6,6,6,6,6,6,6,6,6,6,6,6,7,3,3,3,3,3,3,3,3,3,5,5,3,3,3,3,8,8,8,8,8,8,8,8,8,3,3,3,5,5,3,3,3,4,4,3,3,3,1,1,1,1,1,2,2,2,2,2,
2,2,1,2,2,1,1,1,1,1,2,3,3,3,3,3,3,3,3,3,3,3,3,3,3,4,4,3,3,3,5,5,3,3,3,8,8,8,8,8,8,8,8,8,3,3,3,3,5,5,3,3,3,3,3,3,3,3,3,3,3,6,6,6,6,6,6,6,6,6,6,6,6,6,6,6,6,6,6,6,6,6,6,3,3,3,3,3,3,3,3,3,3,3,5,5,3,3,3,3,8,8,8,8,8,8,8,8,8,3,3,5,5,5,3,3,3,4,4,3,3,3,1,1,1,2,1,2,2,2,1,2,
2,2,2,2,2,1,1,1,2,1,1,3,3,3,3,3,3,3,3,3,3,3,3,3,3,4,4,3,3,3,5,5,3,3,3,8,8,8,8,8,8,8,8,8,3,3,3,3,5,5,3,3,3,3,3,3,3,3,3,3,3,3,3,3,3,3,3,3,3,3,6,6,6,6,3,3,3,3,3,3,3,3,3,3,3,3,3,3,3,3,3,3,3,3,5,5,3,3,3,3,8,8,8,8,8,8,8,8,8,3,3,3,5,5,5,3,3,4,4,3,3,3,1,1,1,1,1,2,2,2,2,2,
1,2,2,2,2,1,2,1,1,1,1,3,3,3,3,3,3,3,3,3,3,3,3,3,3,4,4,3,3,3,5,5,3,3,3,8,8,8,8,8,8,8,8,8,3,7,3,3,5,5,3,3,3,3,3,3,3,3,3,3,3,3,3,3,3,3,3,3,3,3,6,6,6,6,3,3,3,3,3,3,3,3,3,3,3,3,3,3,3,3,3,3,3,3,5,5,3,3,3,3,8,8,8,8,8,8,8,8,8,3,3,3,5,5,5,3,3,4,4,3,3,3,3,1,2,1,1,2,2,2,2,2,
2,2,2,2,2,1,1,1,2,1,3,3,3,3,3,3,3,3,3,3,2,3,3,3,3,4,4,3,3,3,5,5,3,3,3,3,3,3,3,3,3,3,3,3,3,3,3,3,5,5,3,3,3,3,3,3,3,3,3,3,3,3,3,3,3,3,3,3,3,3,6,6,6,6,3,3,3,3,3,3,3,3,3,3,3,3,3,3,3,3,3,3,3,3,5,5,3,3,3,3,3,3,3,3,3,3,3,3,7,7,3,3,5,5,3,3,3,4,4,3,3,3,1,1,1,1,1,2,1,2,2,2,
2,2,1,2,2,1,1,1,1,1,3,3,3,3,3,3,3,3,3,3,3,3,3,3,4,4,4,4,3,3,5,5,3,2,3,3,3,3,3,3,3,3,3,3,3,3,3,3,5,5,3,3,3,3,3,3,3,3,3,3,3,3,3,3,3,3,3,3,3,3,6,6,6,6,3,3,3,3,3,3,3,3,3,3,3,3,3,3,3,3,3,3,3,3,5,5,3,3,3,3,3,3,3,3,3,3,3,3,3,3,3,3,5,5,3,3,4,4,4,4,3,3,1,1,1,1,1,2,2,2,2,2,
1,2,2,2,2,1,1,1,1,2,3,3,3,3,3,3,3,3,3,3,3,3,3,4,4,4,4,4,4,3,5,5,3,3,3,3,3,3,3,3,3,3,3,3,3,3,3,3,5,5,3,3,8,8,8,8,8,8,8,8,3,3,3,3,3,3,3,3,3,3,6,6,6,6,3,3,3,3,3,3,3,3,3,3,8,8,8,8,8,8,8,8,3,3,5,5,3,3,3,3,3,3,3,3,3,3,3,3,3,3,3,5,5,5,3,4,4,4,4,4,4,1,1,1,1,2,1,2,2,2,2,2,
2,2,1,2,2,1,2,1,1,1,3,3,3,3,3,3,3,3,3,3,3,3,3,4,4,4,4,4,4,3,5,5,3,3,3,3,3,3,3,3,3,3,3,3,3,3,3,3,5,5,3,3,8,8,8,8,8,8,8,8,3,8,8,8,8,8,8,8,3,7,6,6,6,6,3,3,8,8,8,8,8,8,8,3,8,8,8,8,8,8,8,8,3,3,5,5,3,3,3,3,3,3,3,3,3,3,3,3,3,3,3,3,5,5,3,4,4,4,4,4,4,1,1,1,1,1,1,2,2,2,2,2,
2,2,2,2,2,1,1,1,2,1,3,3,3,3,3,3,3,3,3,3,3,3,3,4,4,4,4,4,4,3,5,5,3,3,3,3,3,3,3,3,3,3,3,3,3,3,3,3,5,5,3,3,8,8,8,8,8,8,8,8,3,8,8,8,8,8,8,8,3,3,6,6,6,6,3,3,8,8,8,8,8,8,8,3,8,8,8,8,8,8,8,8,3,3,5,5,3,3,7,7,3,7,3,7,3,3,3,7,3,7,7,3,5,5,3,4,4,4,4,4,4,3,1,1,2,1,1,2,2,2,2,2,
2,2,2,2,2,1,2,1,1,1,3,3,3,3,3,3,3,3,3,3,3,3,3,4,4,4,4,4,4,3,5,5,3,3,3,3,3,3,3,3,3,3,3,3,3,3,3,3,5,5,3,3,8,8,8,8,8,8,8,8,3,8,8,8,8,8,8,8,3,3,6,6,6,6,3,3,8,8,8,8,8,8,8,3,8,8,8,8,8,8,8,8,3,3,5,5,3,3,3,13,13,13,13,3,3,13,13,13,13,3,3,3,5,5,3,4,4,4,4,4,4,3,1,1,1,1,1,2,1,2,2,1,
2,1,2,2,2,1,1,1,1,1,3,3,3,3,3,3,3,3,3,3,3,3,3,3,4,4,4,4,3,5,5,5,3,3,3,3,3,3,3,3,3,3,3,3,3,3,3,3,5,5,3,3,8,8,8,8,8,8,8,8,3,8,8,8,8,8,8,8,3,3,6,6,6,6,3,3,8,8,8,8,8,8,8,3,8,8,8,8,8,8,8,8,3,3,5,5,3,3,7,13,13,13,13,3,3,13,13,13,13,3,7,3,5,5,3,3,4,4,4,4,3,1,1,2,1,2,1,2,2,2,2,2,
2,2,2,2,2,1,1,1,2,1,3,3,3,2,3,3,3,3,3,3,3,3,3,3,3,4,4,3,3,5,5,5,3,3,3,3,2,3,3,3,3,3,3,3,3,3,3,3,5,5,3,3,8,8,8,8,8,8,8,8,3,8,8,8,8,8,8,8,3,3,6,6,6,6,3,3,8,8,8,8,8,8,8,3,8,8,8,8,8,8,8,8,3,3,5,5,3,3,3,13,13,13,13,3,3,13,13,13,13,3,3,3,5,5,3,3,3,4,4,3,3,1,1,1,1,1,1,2,2,2,2,1,
2,2,1,2,2,1,1,1,1,1,3,3,3,3,3,3,3,3,3,3,3,3,3,3,3,4,4,3,3,3,5,5,3,3,3,3,3,3,3,2,3,3,3,3,3,3,3,3,5,5,3,3,3,3,3,3,3,3,3,3,3,3,3,3,3,3,3,3,3,3,6,6,6,6,3,3,3,3,3,3,3,3,3,3,3,3,3,3,3,3,3,3,3,3,5,5,3,3,7,13,13,13,13,3,3,13,13,13,13,3,7,3,5,5,3,3,3,4,4,3,3,1,1,1,1,2,1,2,2,2,2,2,
2,2,2,1,2,1,1,1,1,1,1,3,3,2,3,3,3,3,3,3,3,3,3,3,3,4,4,3,3,3,5,5,3,3,3,3,3,3,3,3,3,3,3,3,3,3,3,3,5,5,3,3,3,3,3,3,3,3,3,3,3,3,3,3,3,3,3,3,3,3,6,6,6,6,3,3,3,3,3,3,3,3,3,3,3,3,3,3,3,3,3,3,3,3,5,5,3,3,3,13,13,13,13,3,3,13,13,13,13,3,3,3,5,5,3,3,3,4,4,3,3,3,1,2,1,1,1,2,2,2,2,2,
1,2,2,1,1,1,1,2,1,1,1,3,3,3,3,3,2,3,3,3,3,3,3,3,3,4,4,3,3,3,5,5,5,3,3,3,3,3,3,3,3,3,3,2,3,3,3,3,5,5,3,3,3,3,3,3,3,3,3,3,3,3,3,3,3,3,3,3,3,3,6,6,6,6,3,3,3,3,3,3,3,3,3,3,3,3,3,3,3,3,3,3,3,3,5,5,3,3,7,13,13,13,13,3,3,13,13,13,13,3,7,3,5,5,3,3,3,4,4,3,3,3,1,1,1,1,1,2,2,2,2,2,
2,2,1,1,2,1,1,1,1,1,3,3,3,2,3,3,3,3,3,3,3,3,3,3,3,4,4,3,3,3,5,5,3,3,3,3,3,2,3,3,3,3,3,3,3,3,3,3,5,5,3,3,3,3,3,3,3,3,3,3,3,3,3,3,3,3,3,3,3,3,6,6,6,6,3,3,3,3,3,3,3,3,3,3,3,3,3,3,3,3,3,3,3,3,5,5,3,3,3,13,13,13,13,3,3,13,13,13,13,3,3,2,5,5,3,3,3,4,4,3,3,3,1,1,1,1,1,2,2,2,1,2,
2,1,1,2,1,1,1,2,1,1,3,3,3,3,3,2,3,3,3,3,3,3,3,3,3,4,4,3,3,3,5,5,3,3,3,3,3,3,3,3,3,3,3,3,3,3,3,3,5,5,2,3,3,3,3,3,3,3,3,3,3,3,3,3,3,3,3,3,3,3,6,6,6,6,3,3,3,3,3,3,3,3,3,3,3,3,3,3,3,3,3,3,2,3,5,5,3,3,7,3,3,3,3,3,3,3,3,3,3,3,7,3,5,5,3,3,3,4,4,3,3,3,1,1,2,1,1,2,2,2,2,2,
2,2,2,1,2,1,1,1,1,1,3,3,3,3,3,3,3,3,3,3,3,3,3,3,3,4,4,3,3,3,5,5,5,3,3,3,3,3,3,3,3,3,3,3,3,3,3,3,5,5,3,3,3,3,3,3,3,3,3,3,3,3,3,3,3,3,3,3,3,3,6,6,6,6,7,3,3,3,3,3,3,3,3,3,3,3,3,3,3,3,3,3,3,3,5,5,3,3,3,7,3,7,3,7,3,7,3,7,3,7,3,3,5,5,3,3,3,4,4,3,3,3,1,1,1,1,1,2,2,2,2,2,
1,1,2,2,1,1,1,1,1,1,3,3,3,3,3,3,2,3,3,3,3,3,3,3,3,4,4,3,3,3,5,5,3,3,3,3,3,3,3,3,3,3,3,3,3,3,3,3,5,5,3,3,5,3,3,5,3,3,3,3,3,3,3,3,3,3,3,3,3,3,6,6,6,6,3,3,3,3,3,3,3,3,3,3,3,3,3,3,3,3,3,3,3,3,5,5,3,3,5,5,5,3,5,5,5,3,3,3,3,3,3,3,5,5,3,3,3,4,4,3,3,3,3,1,2,1,1,2,2,1,2,1,
2,2,2,2,2,1,1,2,1,1,3,3,3,3,3,3,3,3,3,3,3,3,3,3,3,4,4,5,5,5,5,5,5,5,5,5,5,5,5,5,5,5,5,5,5,5,5,5,5,5,5,5,5,5,5,5,5,5,5,5,5,5,5,5,5,5,5,5,5,5,6,6,6,6,5,5,5,5,5,5,5,5,5,5,5,5,5,5,5,5,5,5,5,5,5,5,5,5,5,5,5,5,5,5,5,5,5,5,5,5,5,5,5,5,5,5,5,4,4,3,3,3,3,1,1,1,1,2,2,2,2,2,
2,2,2,2,2,1,1,1,1,1,3,3,3,3,3,3,3,3,3,3,3,3,3,3,3,4,4,5,5,5,5,5,5,5,5,5,5,5,5,5,5,5,5,5,5,5,5,5,5,5,5,5,5,5,5,5,5,5,5,5,5,5,5,5,5,5,5,5,5,5,6,6,6,6,5,5,5,5,5,5,5,5,5,5,5,5,5,5,5,5,5,5,5,5,5,5,5,5,5,5,5,5,5,5,5,5,5,5,5,5,5,5,5,5,5,5,5,4,4,3,3,3,1,2,1,1,1,2,2,2,2,1,
2,2,2,2,2,1,1,2,1,1,3,3,3,3,3,3,3,3,3,3,2,3,3,3,3,4,4,3,3,5,5,5,3,3,3,3,3,3,3,3,3,3,3,3,3,3,3,3,5,5,5,5,3,3,3,3,3,3,3,3,3,3,3,3,3,5,5,5,3,3,6,6,6,6,3,3,3,3,3,3,3,3,5,3,3,3,3,3,3,5,5,5,5,3,5,5,3,3,3,3,3,3,3,5,3,3,3,3,5,5,5,3,5,5,3,3,3,4,4,3,3,3,1,1,1,2,1,2,2,2,1,2,
2,2,2,2,2,1,1,1,1,1,3,3,3,3,2,3,3,3,3,3,3,3,3,3,4,4,4,4,3,5,5,5,3,3,3,3,3,3,3,3,3,3,3,3,3,3,3,4,4,4,4,3,3,3,3,3,3,3,3,3,3,3,3,3,3,3,3,3,3,3,4,4,4,4,3,3,3,3,3,3,3,3,3,3,3,3,3,3,3,3,3,3,3,4,4,4,4,3,3,3,3,3,3,3,3,3,3,3,3,3,3,3,5,5,3,3,4,4,4,4,3,3,1,1,1,1,1,2,2,2,2,2,
2,2,1,2,2,1,1,2,1,1,2,3,3,3,3,3,3,2,3,3,3,3,3,4,4,4,4,4,4,3,5,5,3,3,3,3,3,3,3,3,3,3,3,3,3,3,4,4,4,4,4,4,3,3,3,3,3,3,3,3,3,3,3,3,3,3,3,3,3,4,4,4,4,4,4,3,3,3,3,3,3,3,3,3,3,3,3,3,3,3,3,3,4,4,4,4,4,4,3,3,3,3,3,3,3,3,3,3,3,3,3,3,5,5,3,4,4,4,4,4,4,3,2,1,1,1,1,1,2,2,2,2,
2,2,2,2,2,1,1,1,1,1,3,3,2,3,3,3,3,3,3,3,3,3,3,4,4,4,4,4,4,4,4,4,4,4,4,4,4,4,4,4,4,4,4,4,4,4,4,4,4,4,4,4,4,4,4,4,4,4,4,4,4,4,4,4,4,4,4,4,4,4,4,4,4,4,4,4,4,4,4,4,4,4,4,4,4,4,4,4,4,4,4,4,4,4,4,4,4,4,4,4,4,4,4,4,4,4,4,4,4,4,4,4,4,4,4,4,4,4,4,4,4,3,1,1,2,1,1,1,2,2,2,2,
2,2,2,2,1,1,1,2,1,1,3,3,3,3,2,3,3,3,3,3,3,3,3,4,4,4,4,4,4,4,4,4,4,4,4,4,4,4,4,4,4,4,4,4,4,4,4,4,4,4,4,4,4,4,4,4,4,4,4,4,4,4,4,4,4,4,4,4,4,4,4,4,4,4,4,4,4,4,4,4,4,4,4,4,4,4,4,4,4,4,4,4,4,4,4,4,4,4,4,4,4,4,4,4,4,4,4,4,4,4,4,4,4,4,4,4,4,4,4,4,4,3,1,1,1,1,2,2,2,1,2,2,
2,2,1,2,1,1,1,1,1,3,3,3,3,3,3,3,3,1,1,3,3,3,3,4,4,4,4,4,4,3,3,1,3,3,3,3,3,3,3,3,3,3,1,3,3,3,4,4,4,4,4,4,3,3,3,3,3,3,1,1,1,1,3,3,3,3,3,3,3,4,4,4,4,4,4,3,3,3,3,1,1,3,3,3,3,3,3,3,3,3,3,3,4,4,4,4,4,4,3,3,3,3,3,3,3,3,3,3,3,1,1,1,1,3,3,4,4,4,4,4,4,3,1,1,1,1,1,2,2,2,2,2,
2,1,2,2,2,1,2,1,1,3,1,1,1,2,1,1,1,1,1,2,1,1,1,1,4,4,4,4,1,1,1,1,1,1,1,3,3,1,1,1,1,1,1,1,1,1,1,4,4,4,4,1,3,1,1,1,1,1,1,1,1,1,1,1,1,1,1,1,1,1,4,4,4,4,1,1,1,1,1,1,1,1,1,1,3,3,3,1,1,1,1,1,1,4,4,4,4,1,1,1,3,1,1,1,3,3,1,1,1,1,1,1,1,1,1,1,4,4,4,4,1,1,2,1,1,1,1,2,2,2,2,1,
2,2,2,1,2,1,1,1,1,1,2,1,1,1,1,1,1,1,1,1,1,1,1,2,1,1,1,1,1,1,1,1,1,1,1,1,1,1,1,1,1,1,1,1,1,1,1,1,1,1,1,1,1,1,1,1,1,1,1,1,1,1,1,1,1,1,1,1,1,1,1,1,1,1,1,1,1,1,1,1,1,1,1,1,1,1,1,1,1,1,1,1,1,1,1,1,1,1,1,1,1,1,1,1,1,1,1,1,1,1,1,1,1,1,1,1,1,1,1,1,2,1,1,1,2,1,1,2,2,2,2,2,
2,2,1,2,2,1,1,1,1,1,1,1,2,1,1,2,1,2,1,1,1,2,1,1,1,1,2,1,1,1,2,1,2,1,2,1,1,2,1,1,1,1,1,2,1,2,1,2,1,1,1,1,2,1,2,1,2,1,1,1,1,2,1,2,1,1,2,1,2,1,1,2,1,2,1,2,1,1,2,1,2,1,1,2,1,2,1,2,1,1,1,2,1,1,1,1,2,1,1,1,2,1,1,1,2,1,2,1,1,1,1,1,1,1,1,2,1,1,1,1,1,1,1,1,1,1,1,2,2,2,1,1,
2,2,2,2,2,1,1,1,1,1,1,1,1,1,1,1,1,1,1,2,1,1,1,2,1,1,1,1,1,1,1,1,1,1,1,1,1,1,1,1,1,1,1,1,1,1,1,1,1,2,1,1,1,1,1,1,1,1,1,2,1,1,1,1,1,1,1,1,1,1,1,1,1,1,1,1,1,1,1,1,1,1,1,1,1,1,1,1,1,1,1,1,1,2,1,1,1,1,1,1,1,1,1,1,1,1,1,1,1,2,1,2,1,1,1,1,1,1,1,1,1,2,1,1,1,1,1,2,2,2,2,2,
2,1,2,1,2,1,2,1,1,1,1,1,2,1,1,2,1,1,1,1,1,1,1,1,1,2,1,1,1,1,2,1,1,2,1,1,2,1,2,1,1,1,1,1,2,1,1,1,1,1,1,2,1,1,1,1,1,2,1,1,1,2,1,1,2,1,2,1,1,2,1,2,1,1,1,2,1,2,1,1,1,2,1,1,1,2,1,1,2,1,1,1,1,1,1,2,1,1,1,2,1,1,2,1,2,1,1,1,1,1,1,1,1,1,1,1,2,1,2,1,1,1,1,1,2,1,1,2,2,1,2,2,
1,2,2,2,2,1,2,2,2,2,2,2,2,1,2,2,2,1,2,2,1,2,1,1,1,2,2,2,2,2,2,2,1,2,2,2,2,2,2,2,2,1,2,2,1,2,2,2,1,2,2,2,2,2,2,2,2,2,2,2,2,2,2,1,2,2,2,2,2,2,2,2,2,2,1,2,2,2,1,2,2,2,2,2,2,2,1,1,2,2,2,2,1,2,2,1,2,2,2,2,1,2,2,2,2,2,2,2,1,1,2,2,1,1,2,2,2,1,2,1,2,2,2,2,2,2,2,1,2,2,2,2,
1,1,2,1,2,1,1,2,2,2,2,2,2,1,1,2,2,2,2,2,2,2,1,2,2,1,2,2,2,1,2,1,2,2,2,2,2,2,2,2,2,2,2,2,2,2,2,2,2,2,2,2,2,2,2,2,2,2,2,2,2,2,2,2,1,2,2,2,2,2,2,2,2,2,2,2,2,2,2,2,1,2,2,2,2,2,1,2,2,2,2,2,2,2,2,2,1,2,2,2,2,2,2,1,2,2,2,2,2,2,2,1,2,2,2,2,2,2,2,2,2,2,2,2,2,2,2,2,2,2,1,2,
2,2,2,2,2,2,2,2,1,2,1,1,1,1,2,1,2,2,2,2,2,2,2,2,2,2,2,2,2,2,2,2,2,2,2,2,2,2,1,2,2,2,2,2,2,2,2,2,2,1,2,2,2,2,2,2,2,1,2,2,2,1,2,2,1,2,2,2,2,2,2,2,2,2,2,2,1,2,2,2,2,2,1,2,2,2,2,2,2,2,2,2,2,2,2,2,2,2,1,2,2,2,2,1,2,1,2,2,1,2,2,2,2,2,2,2,2,2,2,2,2,2,2,2,2,2,2,2,2,2,1,2,
2,2,1,2,1,1,2,2,2,1,2,2,2,2,2,2,2,2,2,2,2,2,2,2,2,2,1,2,2,2,2,1,1,2,2,2,2,2,2,2,2,2,2,1,2,2,2,2,2,2,2,2,2,2,2,2,1,2,1,2,2,2,1,2,2,2,1,1,2,2,1,2,2,2,1,2,2,2,2,2,2,2,2,2,2,2,2,2,2,1,2,2,2,2,2,2,2,2,2,2,2,2,2,2,2,2,2,2,2,2,2,1,2,2,1,2,2,2,2,2,1,2,2,2,2,2,1,2,1,2,1,2,
2,1,2,1,2,2,2,2,2,2,2,2,1,2,1,2,2,2,2,2,2,2,2,2,2,1,2,2,2,2,1,2,2,2,2,2,2,2,1,2,1,2,2,2,2,2,2,2,2,2,2,2,1,2,2,2,1,2,1,2,2,2,2,2,2,2,1,2,2,2,2,2,2,2,2,2,1,2,2,2,2,2,2,2,2,2,2,2,2,2,2,2,2,2,2,1,2,2,2,2,2,2,2,2,2,2,2,1,2,2,2,2,2,2,2,1,1,2,2,2,2,2,2,2,2,2,2,2,2,2,2,2
  </data>
 </layer>
 <objectgroup id="2" name="objects">
  <object id="1" name="" type="playerSpawn" x="2320.0" y="1680.0">
  </object>
  <object id="2" name="" type="portal" x="160.0" y="1472.0">
   <properties>
         <property name="direction" value="O"/>
         <property name="targetMapId" value="9a884ac7-b954-4cd6-ab67-c677d472cb0f"/>
         <property name="targetX" type="float" value="14144.0"/>
         <property name="targetY" type="float" value="4320.0"/>
   </properties>
  </object>
  <object id="3" name="" type="portal" x="4064.0" y="1472.0">
   <properties>
         <property name="direction" value="E"/>
         <property name="targetMapId" value="4dae9974-45f7-46c9-8e66-12cdac759860"/>
         <property name="targetX" type="float" value="192.0"/>
         <property name="targetY" type="float" value="576.0"/>
   </properties>
  </object>
  <object id="4" name="" type="npcSpawn" x="1296.0" y="1388.8">
   <properties>
         <property name="npcId" value="a3c8d0f2-5d5f-4d2c-9f2c-3f4e5d6c7b8a"/>
   </properties>
  </object>
  <object id="5" name="" type="npcSpawn" x="3408.0" y="1356.8">
   <properties>
         <property name="npcId" value="dcb67f1e-b178-4062-8393-26abca9b0d66"/>
   </properties>
  </object>
  <object id="6" name="" type="npcSpawn" x="976.0" y="1401.6">
   <properties>
         <property name="npcId" value="318a4b28-4aae-46fa-ab99-2bc62738f1c3"/>
   </properties>
  </object>
  <object id="7" name="" type="npcSpawn" x="976.0" y="1542.4">
   <properties>
         <property name="npcId" value="6fea25d2-5d6f-474e-adef-c11c1a903843"/>
   </properties>
  </object>
  <object id="8" name="" type="npcSpawn" x="3632.0" y="1401.6">
   <properties>
         <property name="npcId" value="a760adde-b995-4ab8-a073-ac5f4d4e5a23"/>
   </properties>
  </object>
  <object id="9" name="" type="npcSpawn" x="3632.0" y="1542.4">
   <properties>
         <property name="npcId" value="b748cda3-b7ed-4e50-863e-a31bc4815d9f"/>
   </properties>
  </object>
  <object id="10" name="" type="npcSpawn" x="1843.2" y="1408.0">
   <properties>
         <property name="npcId" value="b0362279-5a46-4461-9672-6f4e0b2cf7e0"/>
   </properties>
  </object>
  <object id="11" name="" type="npcSpawn" x="2764.8" y="1408.0">
   <properties>
         <property name="npcId" value="a38d3420-52b9-498a-ba7a-0248158c1acc"/>
   </properties>
  </object>
  <object id="12" name="" type="npcSpawn" x="2272.0" y="688.0">
   <properties>
         <property name="npcId" value="f006ec9d-60f1-46e3-9dc8-e10c3fd43338"/>
   </properties>
  </object>
  <object id="13" name="" type="npcSpawn" x="2336.0" y="2256.0">
   <properties>
         <property name="npcId" value="7d014cb8-a199-484b-a7b8-24c086f6c797"/>
   </properties>
  </object>
  <object id="14" name="Peace Zone" type="peaceZone" x="0.0" y="0.0">
   <polygon points="0,0 4224,0 4224,2944 0,2944"/>
  </object>
 </objectgroup>
</map>
